ePapirus/16x16/places/folder-games.svg

<?xml version="1.0" encoding="UTF-8" standalone="no"?>
<svg xmlns="http://www.w3.org/2000/svg" width="16" height="16" viewBox="0 0 16 16">
 <defs>
  <style type="text/css" id="current-color-scheme">
   .ColorScheme-Text { color:#6e6e6e; } .ColorScheme-Highlight { color:#5294e2; } .ColorScheme-ButtonBackground { color:#ffffff; }
  </style>
 </defs>
 <path style="fill:currentColor;opacity:1" class="ColorScheme-Text" d="M 3.7845679,2.0312 C 3.5422295,2.0322 3.2635314,2.0972 2.9786833,2.25 1.9412901,2.7965 0.98669651,4.586 0.46799995,6.9062 0.02584288,8.8771 -0.13654604,11.5723 0.12705221,12.6562 0.35663069,13.5879 0.75410805,14 1.4598433,14 2.5057364,13.982 3.8191277,12.8177 4.6524222,11.25 5.2551182,10.3821 6.6529089,9.9875 8,10.0312 c 1.346991,-0.047 2.744782,0.3509 3.347578,1.2188 0.833294,1.5677 2.146686,2.7321 3.192579,2.75 0.705755,0 1.103192,-0.4121 1.332791,-1.3438 C 16.136546,11.5723 15.974157,8.8771 15.532,6.9062 15.013313,4.586 14.05871,2.7965 13.021317,2.25 12.45162,1.9454 11.981124,1.9544 11.564526,2.25 11.03734,2.6263 9.9387371,3.0296 8.00005,3.0312 6.0613628,3.0312 4.9627701,2.6263 4.4355736,2.25 4.227255,2.1022 4.0270063,2.0301 3.7846679,2.0312 Z m 0.2479684,3 0.9918534,0 0,1 0.9918634,0 0,1 -0.9918634,0 0,1 -0.9918534,0 0,-1 -0.9918635,0 0,-1 0.9918635,0 0,-1 z m 7.4389507,0 c 0.273898,0 0.495927,0.2239 0.495927,0.5 0,0.2762 -0.222029,0.5 -0.495927,0.5 -0.273898,0 -0.495927,-0.2238 -0.495927,-0.5 0,-0.2761 0.222029,-0.5 0.495927,-0.5 z m -0.991863,1 c 0.273898,0 0.495936,0.2239 0.495936,0.5 0,0.2762 -0.222038,0.5 -0.495936,0.5 -0.273889,0 -0.4959272,-0.2238 -0.4959272,-0.5 0,-0.2761 0.2220382,-0.5 0.4959272,-0.5 z m 1.983686,0 c 0.273889,0 0.495927,0.2239 0.495927,0.5 0,0.2762 -0.222038,0.5 -0.495927,0.5 -0.273898,0 -0.495936,-0.2238 -0.495936,-0.5 0,-0.2761 0.222038,-0.5 0.495936,-0.5 z m -0.991863,1 c 0.273898,0 0.495927,0.2239 0.495927,0.5 0,0.2762 -0.222029,0.5 -0.495927,0.5 -0.273898,0 -0.495927,-0.2238 -0.495927,-0.5 0,-0.2761 0.222029,-0.5 0.495927,-0.5 z"/>
</svg>

<svg xmlns="http://www.w3.org/2000/svg" width="16" height="16" version="1.1" viewBox="0 0 16 16">
 <defs>
  <style id="current-color-scheme" type="text/css">
   .ColorScheme-Text { color:#6e6e6e; } .ColorScheme-Highlight { color:#5294e2; } .ColorScheme-ButtonBackground { color:#ffffff; }
  </style>
 </defs>
 <path style="fill:currentColor" d="M 12.238 1.9922 C 11.997 1.9934 11.774 2.0722 11.564 2.2227 C 11.034 2.6037 9.9359 3.002 8.0059 3.002 C 6.0659 3.002 4.9655 2.6037 4.4355 2.2227 C 4.2255 2.0717 4.0252 2.002 3.7852 2.002 C 3.5452 2.002 3.2646 2.0717 2.9746 2.2227 C 1.9446 2.7737 0.98484 4.5559 0.46484 6.8809 C 0.024844 8.8649 -0.135 11.56 0.125 12.645 C 0.355 13.587 0.75486 14 1.4648 14 C 2.5048 13.98 3.8143 12.814 4.6543 11.24 C 5.2543 10.368 6.6559 9.9771 8.0059 10.018 C 9.3459 9.9671 10.746 10.368 11.346 11.24 C 12.186 12.814 13.495 13.98 14.545 14 C 15.245 14 15.645 13.587 15.875 12.645 C 16.135 11.56 15.975 8.8649 15.535 6.8809 C 15.015 4.5559 14.055 2.7737 13.025 2.2227 C 12.74 2.0672 12.48 1.9909 12.238 1.9922 z M 4 5 L 5 5 L 5 6 L 6 6 L 6 7 L 5 7 L 5 8 L 4 8 L 4 7 L 3 7 L 3 6 L 4 6 L 4 5 z M 11.5 5 A 0.5 0.5 0 0 1 12 5.5 A 0.5 0.5 0 0 1 11.5 6 A 0.5 0.5 0 0 1 11 5.5 A 0.5 0.5 0 0 1 11.5 5 z M 10.5 6 A 0.5 0.5 0 0 1 11 6.5 A 0.5 0.5 0 0 1 10.5 7 A 0.5 0.5 0 0 1 10 6.5 A 0.5 0.5 0 0 1 10.5 6 z M 12.5 6 A 0.5 0.5 0 0 1 13 6.5 A 0.5 0.5 0 0 1 12.5 7 A 0.5 0.5 0 0 1 12 6.5 A 0.5 0.5 0 0 1 12.5 6 z M 11.5 7 A 0.5 0.5 0 0 1 12 7.5 A 0.5 0.5 0 0 1 11.5 8 A 0.5 0.5 0 0 1 11 7.5 A 0.5 0.5 0 0 1 11.5 7 z" class="ColorScheme-Text"/>
</svg>
